X:1
T:Blow, Boys, Blow
M:4/4
L:1/4
K:G
 G3/2 B/2 d3/2 c/2| B A A/2 G3/2| A2 d2| c3 c| d3/2 B/2 c A| B d B/2 G3/2|\
 A d A/2A/2 d| G4|||
